img/Vector2.svg

<svg width="7" height="11" viewBox="0 0 7 11" fill="none" xmlns="http://www.w3.org/2000/svg">
<path fill-rule="evenodd" clip-rule="evenodd" d="M5.94554 5.16979C6.12175 5.34601 6.12175 5.63166 5.94554 5.80787L1.34527 10.4081C1.16906 10.5843 0.883411 10.5843 0.707197 10.4081L0.494465 10.1954C0.318251 10.0192 0.318251 9.73352 0.494465 9.55731L4.56296 5.48883L0.494465 1.42033C0.318251 1.24412 0.318251 0.958471 0.494465 0.782258L0.707196 0.569526C0.88341 0.393312 1.16906 0.393312 1.34527 0.569526L5.94554 5.16979Z" fill="black"/>
</svg>

<svg xmlns="http://www.w3.org/2000/svg" width="7" height="11" fill="none"><path fill="#000" fill-rule="evenodd" d="M5.946 5.17a.451.451 0 0 1 0 .638l-4.6 4.6a.451.451 0 0 1-.639 0l-.213-.213a.451.451 0 0 1 0-.638L4.563 5.49.494 1.42a.451.451 0 0 1 0-.638L.707.57a.451.451 0 0 1 .638 0l4.6 4.6Z" clip-rule="evenodd"/></svg>
